web/wp-content/themes/cncf-twenty-two/images/projects/tikv-icon-color.svg

<svg viewBox="0 0 571.36 222.23" xmlns="http://www.w3.org/2000/svg"><path d="m0 55.56v111.12l96.23 55.55 96.23-55.55v-111.12l-96.23-55.56z" fill="#e30c34"/><path d="m96.17 37.09-63.91 36.9v36.9l31.97-18.46v74.29l31.95 18.42v-111.16l31.94-18.44z" fill="#fff"/><path d="m128.3 92.62v74.06l32.09-18.53v-74.07z" fill="#fff"/><g fill="#172d72"><path d="m281.35 167h-23v-92.51h-33.81v-19.14h89.46v19.14h-32.65z"/><path d="m350.72 74.49h-21.44v-19.14h21.44zm0 92.49h-21.44v-82.69h21.44z"/><path d="m396.65 167h-23v-111.65h23v49l43.64-49h27.1l-44.56 48.08 49.31 63.57h-27.41l-36.6-49.31-11.48 12z"/><path d="m513.63 167-37.63-111.65h23.13l24.8 84.07 24.35-84.07h23.12l-38.32 111.65z"/></g></svg>

<svg xmlns="http://www.w3.org/2000/svg" viewBox="0 0 571.36 222.23"><defs><style>.cls-1{fill:#e30c34;}.cls-2{fill:#fff;}.cls-3{fill:#172d72;}</style></defs><g id="Layer_2" data-name="Layer 2"><g id="Layer_2-2" data-name="Layer 2"><polygon class="cls-1" points="0 55.56 0 166.68 96.23 222.23 192.46 166.68 192.46 55.56 96.23 0 0 55.56"/><polygon class="cls-2" points="96.17 37.09 32.26 73.99 32.26 110.89 64.23 92.43 64.23 166.72 96.18 185.14 96.18 185.14 96.18 73.98 128.12 55.54 96.17 37.09"/><polygon class="cls-2" points="128.3 92.62 128.3 166.68 160.39 148.15 160.39 74.08 128.3 92.62"/><path class="cls-3" d="M281.35,167h-23V74.49H224.54V55.35H314V74.49H281.35Z"/><path class="cls-3" d="M350.72,74.49H329.28V55.35h21.44Zm0,92.49H329.28V84.29h21.44Z"/><path class="cls-3" d="M396.65,167h-23V55.35h23v49l43.64-49h27.1l-44.56,48.08L472.14,167H444.73l-36.6-49.31-11.48,12Z"/><path class="cls-3" d="M513.63,167,476,55.35h23.13l24.8,84.07,24.35-84.07h23.12L533.08,167Z"/></g></g></svg>
